**kern	**text
*staff2	*staff2
*I"Tenor	*
*clefGv2	*
*k[b-e-]	*
*met(c)	*
*M4/4	*
4.d\	H&ouml;rst
8d\	du
=1	=1
4c\	nicht
4d\	die
4.d\	B&auml;u-
8c\	-me
=2	=2
4d\	rau-
4c\	-schen
4c\	drau-
8B-/L	-ßen
8A/J	.
=3	=3
4B-\	durch
4B-\	die
4A/	stil-
4B-\	-le
=4	=4
!!linebreak:original
2c\	Rund?
4.d\	Lockt's
8d\	dich
=5	=5
!!linebreak:original
4c\	nicht,
4d\	hin-
4.d\	-ab-
8c\	-zu-
=6	=6
4d\	-lau-
4c\	-schen
4c\	von
4c\	dem
=7	=7
4.A/	S&ouml;l-
8A/	-ler
4d\	in
4c\	den
=8	=8
2B-\	Grund,
2r	.
=9	=9
1r	.
=10	=10
!!pagebreak:original
(2G/	nicht
2En/)	.
=11	=11
4F/	von
4c\	dem
4B-\	S&ouml;l-
4B-\	-ler
=12	=12
2A/	in
(4.B-\	den
8c\)	.
=13	=13
(2B-\	Grund,
4A/)	.
4r	.
=14	=14
!!linebreak:original
8B-\	wo
8B-\	die
8B-\	vie-
8B-\	-len
4A-/	B&auml;-
4A-/	-che
=15	=15
2B-\	ge-
4c\	-hen
4r	.
=16	=16
8B-\	wun-
8B-\	-der-
8B-\	-bar
8B-\	im
4d-\	Mon-
4d-\	-den-
=17	=17
(2f\	-schein
4e-\)	.
4r	.
=18	=18
!!pagebreak:original
8e-\	und
8e-\	die
8e-\	stil-
8e-\	-len
4A-/	Schl&ouml;s-
4A-/	-ser
=19	=19
2d-\	se-
4c\	-hen
8.c\	in
16c\	den
=20	=20
4.c\	Fluß
8c\	vom
4c\	ho-
4c-\	-hen
=21	=21
2B-\	Stein,
4r	.
8.B-\	in
16B-\	den
=22	=22
!!linebreak:original
4.B-\	Fluß
8B-\	vom
4c\	ho-
4c\	-hen
=23	=23
4B-\	Stein,
4d\	vom
4.e-\	ho-
8d\	-hen
=24	=24
(1c	Stein?
=25	=25
2d;\)	.
=||	=||
4.d\	Kennst
8d\	du
=26	=26
!!linebreak:original
4c\	noch
4d\	die
4.d\	ir-
8c\	-ren
=27	=27
4d\	Lie-
4c\	-der
4c\	aus
8B-/L	der
8A/J	.
=28	=28
4B-\	al-
4B-\	-ten,
4A/	sch&ouml;-
4B-\	-nen
=29	=29
2c\	Zeit?
4.d\	Sie
8d\	er-
=30	=30
4c\	-wa-
4d\	-chen
4.d\	al-
8c\	-le
=31	=31
!!linebreak:original
4d\	wie-
4c\	-der
4c\	nachts
4c\	in
=32	=32
4.A/	Wal-
8A/	-des-
4d\	-ein-
4c\	-sam-
=33	=33
2B-\	-keit,
2r	.
=34	=34
1r	.
=35	=35
2.G/	wie-
4En/	-der
=36	=36
!!pagebreak:original
4F/	nachts
4c\	in
4B-\	Wal-
4B-\	-des-
=37	=37
2A/	-ein-
4.B-\	-sam-
8c\	.
=38	=38
(2B-\	-keit,
4A/)	.
4r	.
=39	=39
8B-\	wenn
8B-\	die
8B-\	B&auml;u-
8B-\	-me
4A-/	tr&auml;u-
4A-/	-mend
=40	=40
!!linebreak:original
2B-\	lau-
4c\	-schen
4r	.
=41	=41
8B-\	und
8B-\	der
8B-\	Flie-
8B-\	-der
4d-\	duf-
4d-\	-tet
=42	=42
(2f\	schwül
4e-\)	.
4r	.
=43	=43
8e-\	und
8e-\	im
8e-\	Fluß
8e-\	die
4A-/	Ni-
4A-/	-xen
=44	=44
!!linebreak:original
2d-\	rau-
4c\	-schen;
8.c\	komm
16c\	her-
=45	=45
4.c\	-ab,
8c\	hier
4c\	ist's
4c-\	so
=46	=46
2B-\	kühl,
4r	.
8.B-\	komm
16B-\	her-
=47	=47
4.B-\	-ab,
8B-\	hier
4c\	ist's
4c\	so
=48	=48
!!linebreak:original
(2A/	kühl,
4B-\)	.
8.d\	komm
16e-\	her-
=49	=49
!!pagebreak:original
2.e-\	-ab,
8.e-\	komm
16en\	her-
=50	=50
2.en\	-ab,
8.f\	komm
16e-\	her-
=51	=51
4.e-\	-ab,
8e-\	hier
4d\	ist's
4c\	so
=52	=52
(2A/	kühl,
4B-\)	.
4r	.
==	==
*-	*-
